public/imgs/icons/lock_outline_28.svg

<?xml version="1.0" encoding="UTF-8"?>
<svg width="28px" height="28px" viewBox="0 0 28 28" version="1.1" xmlns="http://www.w3.org/2000/svg" xmlns:xlink="http://www.w3.org/1999/xlink">
    <!-- Generator: Sketch 63.1 (92452) - https://sketch.com -->
    <title>lock_outline_28</title>
    <desc>Created with Sketch.</desc>
    <g id="Page-1" stroke="none" stroke-width="1" fill="none" fill-rule="evenodd">
        <g id="lock_outline_28">
            <rect x="0" y="0" width="28" height="28"></rect>
            <path d="M14,2 C17.3137085,2 20,4.6862915 20,8 L20.0020505,10.0227379 C20.8448855,10.0749657 21.3825676,10.222443 21.9368674,10.5188859 C22.6000248,10.8735463 23.1264537,11.3999752 23.4811141,12.0631326 C23.8663256,12.7834154 24,13.4756382 24,14.8458278 L24,21.1541722 C24,22.5243618 23.8663256,23.2165846 23.4811141,23.9368674 C23.1264537,24.6000248 22.6000248,25.1264537 21.9368674,25.4811141 C21.2165846,25.8663256 20.5243618,26 19.1541722,26 L8.8458278,26 C7.47563815,26 6.78341544,25.8663256 6.06313259,25.4811141 C5.39997522,25.1264537 4.8735463,24.6000248 4.51888586,23.9368674 C4.13367437,23.2165846 4,22.5243618 4,21.1541722 L4,14.8458278 C4,13.4756382 4.13367437,12.7834154 4.51888586,12.0631326 C4.8735463,11.3999752 5.39997522,10.8735463 6.06313259,10.5188859 C6.61765171,10.2223258 7.1555399,10.074849 7.99894982,10.022676 L8,8 C8,4.6862915 10.6862915,2 14,2 Z M19.1541722,12 L8.8458278,12 C7.77756757,12 7.39725995,12.0734408 7.0063303,12.2825123 C6.69170989,12.4507731 6.45077309,12.6917099 6.28251225,13.0063303 C6.07344079,13.39726 6,13.7775676 6,14.8458278 L6,21.1541722 C6,22.2224324 6.07344079,22.60274 6.28251225,22.9936697 C6.45077309,23.3082901 6.69170989,23.5492269 7.0063303,23.7174877 C7.39725995,23.9265592 7.77756757,24 8.8458278,24 L19.1541722,24 C20.2224324,24 20.60274,23.9265592 20.9936697,23.7174877 C21.3082901,23.5492269 21.5492269,23.3082901 21.7174877,22.9936697 C21.9265592,22.60274 22,22.2224324 22,21.1541722 L22,14.8458278 C22,13.7775676 21.9265592,13.39726 21.7174877,13.0063303 C21.5492269,12.6917099 21.3082901,12.4507731 20.9936697,12.2825123 C20.60274,12.0734408 20.2224324,12 19.1541722,12 Z M14,15 C14.5522847,15 15,15.4477153 15,16 L15,19 C15,19.5522847 14.5522847,20 14,20 C13.4477153,20 13,19.5522847 13,19 L13,16 C13,15.4477153 13.4477153,15 14,15 Z M14,4 C11.790861,4 10,5.790861 10,8 L10,10 L18,10 L18,8 C18,5.790861 16.209139,4 14,4 Z" id="↳-Icon-Color" fill="currentColor" fill-rule="nonzero"></path>
        </g>
    </g>
</svg>

<svg xmlns="http://www.w3.org/2000/svg" width="28" height="28" xmlns:v="https://vecta.io/nano"><path d="M14 2a6 6 0 0 1 6 6l.002 2.023c.843.052 1.381.2 1.935.496.663.355 1.19.881 1.544 1.544.385.72.519 1.413.519 2.783v6.308c0 1.37-.134 2.062-.519 2.783-.355.663-.881 1.19-1.544 1.544-.72.385-1.413.519-2.783.519H8.846c-1.37 0-2.062-.134-2.783-.519-.663-.355-1.19-.881-1.544-1.544-.385-.72-.519-1.413-.519-2.783v-6.308c0-1.37.134-2.062.519-2.783.355-.663.881-1.19 1.544-1.544.555-.297 1.092-.444 1.936-.496L8 8a6 6 0 0 1 6-6zm5.154 10H8.846c-1.068 0-1.449.073-1.839.283-.315.168-.556.409-.724.724-.209.391-.283.771-.283 1.839v6.308c0 1.068.073 1.449.283 1.839.168.315.409.556.724.724.391.209.771.283 1.839.283h10.308c1.068 0 1.449-.073 1.839-.283.315-.168.556-.409.724-.724.209-.391.283-.771.283-1.839v-6.308c0-1.068-.073-1.449-.283-1.839-.168-.315-.409-.556-.724-.724-.391-.209-.771-.283-1.839-.283zM14 15a1 1 0 0 1 1 1v3a1 1 0 1 1-2 0v-3a1 1 0 0 1 1-1zm0-11a4 4 0 0 0-4 4v2h8V8a4 4 0 0 0-4-4z" fill="#000" fill-rule="nonzero"/></svg>
